src/assets/background/background-2.svg

<svg width="376" height="812" viewBox="0 0 376 812" fill="none" xmlns="http://www.w3.org/2000/svg"><g clip-path="url(#a)"><path fill="#19D3C5" d="M0 0h376v812H0z"/><path d="M81.01 143.32c0 .19 0 .39.02.59h83.11c0-3-.49-5.88-1.4-8.57-3.58-10.66-13.65-18.34-25.51-18.34-8.88 0-16.75 4.29-21.65 10.93-1.65-.56-3.42-.87-5.26-.87-5.28 0-9.98 2.52-12.95 6.42-1.55-.83-3.33-1.3-5.22-1.3-3.03 0-5.77 1.2-7.78 3.16a11.13 11.13 0 0 0-3.37 7.99zm59.25 150.83h118.7c-.4-11.39-9.75-20.49-21.24-20.49-3.38 0-6.58.79-9.42 2.2-6.17-10.11-17.31-16.86-30.02-16.86-15.93 0-29.39 10.6-33.7 25.14a14.5 14.5 0 0 0-9.78-3.78c-7.79 0-14.15 6.11-14.54 13.8zM-31 442.51h94.04c-.39-11.18-9.57-20.11-20.83-20.11-3.32 0-6.46.77-9.24 2.15C26.91 414.63 15.98 408 3.51 408c-19.06 0-34.5 15.45-34.5 34.5z" stroke="#fff" stroke-width=".78" stroke-linecap="round" stroke-linejoin="round"/><path d="m95.01 105-1.773 7.655 1.773 8.316 1.642-8.137z" fill="#fff"/><path d="m101 112.764-5.75-1.524-6.25 1.524 6.113 1.408zM14.012 234l-2.069 8.93 2.069 9.703 1.915-9.493z" fill="#fff"/><path d="m21 243.059-6.708-1.778L7 243.059l7.132 1.643zm336.01-62.397-1.773 7.655 1.773 8.316 1.642-8.137z" fill="#fff"/><path d="m363 188.427-5.75-1.524-6.25 1.524 6.113 1.408zM232.018 153l-2.955 12.756 2.955 13.859 2.736-13.56z" fill="#fff"/><path d="m242 165.938-9.585-2.538L222 165.938l10.19 2.347z" fill="#fff"/><g clip-path="url(#b)"><path d="M247.764 622H376v190H0V543l55.359 13.255A20.39 20.39 0 0 1 71 576.084c0 11.26 9.129 20.389 20.39 20.389h130.846c7.05 0 12.764 5.714 12.764 12.763 0 7.05 5.714 12.764 12.764 12.764" fill="#fff"/><g clip-path="url(#c)"><path d="m209.19 637.25-7.88 3.04-5.09 8.74h26.84c0-19.34-15.68-35.03-35.03-35.03S153 629.69 153 649.03h27.5l-5.04-5.77-8.3-1.49a.5.5 0 0 1-.4-.58.52.52 0 0 1 .58-.41l7.08 1.28-2.72-3.12-3.16-3.62a.505.505 0 0 1 .05-.71c.21-.18.53-.16.71.05l2.44 2.8.45-3.16c.03-.28.29-.46.56-.43.27.04.46.29.43.56l-.57 4.03 3.5 4.01s.01.01.01.02l5.43 6.22c.08.09.12.21.12.32h5.86v-8.1l-7.31-9.1a.502.502 0 0 1 .78-.63l6.53 8.14V626.7c0-.27.22-.5.5-.5s.5.23.5.5v22.33h6.6c0-.08.02-.17.07-.25l1.47-2.53-.73-4.94c-.05-.27.14-.52.42-.57.26-.03.52.15.56.42l.56 3.71 3.07-5.26 3.59-6.18a.49.49 0 0 1 .68-.17c.24.13.32.44.18.68l-2.89 4.97 6.73-2.59c.26-.1.54.03.64.29.1.25-.03.54-.29.64" fill="#fff"/></g><path fill-rule="evenodd" clip-rule="evenodd" d="M145.91 503.18c0 3.47-.97 6.72-2.66 9.47 6.2 4.7 10.19 12.14 10.19 20.51 0 14.03-11.24 25.45-25.22 25.71v-26.13l7.3-9.1c.18-.22.14-.53-.07-.71a.517.517 0 0 0-.71.08l-6.52 8.13v-30.75c0-.28-.22-.5-.5-.5s-.5.22-.5.5v16.06l-6.53-8.13a.504.504 0 0 0-.7-.08c-.21.18-.25.49-.08.71l7.31 9.1v23.36l-3.55-4.42a.51.51 0 0 0-.71-.08c-.21.17-.25.49-.07.7l4.33 5.4v15.86c-13.98-.26-25.22-11.68-25.22-25.71 0-8.37 3.99-15.81 10.18-20.51-1.68-2.75-2.65-6-2.65-9.47 0-10.04 8.15-18.18 18.19-18.18s18.19 8.14 18.19 18.18m-17.689 94.26v-38.57h-1v38.57c0 .28.22.5.5.5s.5-.22.5-.5" fill="#fff"/><path d="m330.19 610.25-7.88 3.04-5.09 8.74h26.84c0-19.34-15.68-35.03-35.03-35.03S274 602.69 274 622.03h27.5l-5.04-5.77-8.3-1.49a.5.5 0 0 1-.4-.58.52.52 0 0 1 .58-.41l7.08 1.28-2.72-3.12-3.16-3.62a.505.505 0 0 1 .05-.71c.21-.18.53-.16.71.05l2.44 2.8.45-3.16c.03-.28.29-.46.56-.43.27.04.46.29.43.56l-.57 4.03 3.5 4.01s.01.01.01.02l5.43 6.22c.08.09.12.21.12.32h5.86v-8.1l-7.31-9.1a.502.502 0 0 1 .78-.63l6.53 8.14V599.7c0-.27.22-.5.5-.5s.5.23.5.5v22.33h6.6c0-.08.02-.17.07-.25l1.47-2.53-.73-4.94c-.05-.27.14-.52.42-.57.26-.03.52.15.56.42l.56 3.71 3.07-5.26 3.59-6.18a.49.49 0 0 1 .68-.17c.24.13.32.44.18.68l-2.89 4.97 6.73-2.59c.26-.1.54.03.64.29.1.25-.03.54-.29.64" fill="#fff"/></g></g><defs><clipPath id="a"><path fill="#fff" d="M0 0h376v812H0z"/></clipPath><clipPath id="b"><path fill="#fff" d="M0 485h376v327H0z"/></clipPath><clipPath id="c"><path fill="#fff" d="M153 614h70.06v35.03H153z"/></clipPath></defs></svg>

<svg width="376" height="812" viewBox="0 0 376 812" fill="none" xmlns="http://www.w3.org/2000/svg">
<g clip-path="url(#clip0_234_2751)">
<rect width="376" height="812" fill="#19D3C5"/>
<path d="M81.01 143.32C81.01 143.51 81.01 143.71 81.03 143.91H164.14C164.14 140.91 163.65 138.03 162.74 135.34C159.16 124.68 149.09 117 137.23 117C128.35 117 120.48 121.29 115.58 127.93C113.93 127.37 112.16 127.06 110.32 127.06C105.04 127.06 100.34 129.58 97.37 133.48C95.82 132.65 94.04 132.18 92.15 132.18C89.12 132.18 86.38 133.38 84.37 135.34C82.29 137.37 81 140.2 81 143.33L81.01 143.32Z" stroke="white" stroke-width="0.78" stroke-linecap="round" stroke-linejoin="round"/>
<path d="M140.26 294.15H258.96C258.56 282.76 249.21 273.66 237.72 273.66C234.34 273.66 231.14 274.45 228.3 275.86C222.13 265.75 210.99 259 198.28 259C182.35 259 168.89 269.6 164.58 284.14C161.99 281.79 158.57 280.36 154.8 280.36C147.01 280.36 140.65 286.47 140.26 294.16V294.15Z" stroke="white" stroke-width="0.78" stroke-linecap="round" stroke-linejoin="round"/>
<path d="M-31 442.51H63.04C62.65 431.33 53.47 422.4 42.21 422.4C38.89 422.4 35.75 423.17 32.97 424.55C26.91 414.63 15.98 408 3.51 408C-15.55 408 -30.99 423.45 -30.99 442.5L-31 442.51Z" stroke="white" stroke-width="0.78" stroke-linecap="round" stroke-linejoin="round"/>
<path d="M95.0097 105L93.2368 112.655L95.0097 120.971L96.6517 112.834L95.0097 105Z" fill="white"/>
<path d="M101 112.764L95.2499 111.24L89 112.764L95.1132 114.172L101 112.764Z" fill="white"/>
<path d="M14.0117 234L11.9434 242.93L14.0117 252.633L15.9274 243.14L14.0117 234Z" fill="white"/>
<path d="M21 243.059L14.2916 241.281L7 243.059L14.1321 244.702L21 243.059Z" fill="white"/>
<path d="M357.01 180.662L355.237 188.317L357.01 196.633L358.652 188.496L357.01 180.662Z" fill="white"/>
<path d="M363 188.427L357.25 186.903L351 188.427L357.113 189.835L363 188.427Z" fill="white"/>
<path d="M232.018 153L229.063 165.756L232.018 179.615L234.754 166.055L232.018 153Z" fill="white"/>
<path d="M242 165.938L232.415 163.4L222 165.938L232.19 168.285L242 165.938Z" fill="white"/>
<g clip-path="url(#clip1_234_2751)">
<path d="M247.764 622H376V812H0V543L55.3586 556.255C64.531 558.451 71 566.652 71 576.084C71 587.344 80.1285 596.473 91.3891 596.473H222.236C229.286 596.473 235 602.187 235 609.236C235 616.286 240.714 622 247.764 622Z" fill="white"/>
<g clip-path="url(#clip2_234_2751)">
<path d="M209.19 637.25L201.31 640.29L196.22 649.03H223.06C223.06 629.69 207.38 614 188.03 614C168.68 614 153 629.69 153 649.03H180.5L175.46 643.26L167.16 641.77C166.89 641.72 166.71 641.46 166.76 641.19C166.81 640.92 167.08 640.74 167.34 640.78L174.42 642.06L171.7 638.94L168.54 635.32C168.36 635.11 168.38 634.79 168.59 634.61C168.8 634.43 169.12 634.45 169.3 634.66L171.74 637.46L172.19 634.3C172.22 634.02 172.48 633.84 172.75 633.87C173.02 633.91 173.21 634.16 173.18 634.43L172.61 638.46L176.11 642.47C176.11 642.47 176.12 642.48 176.12 642.49L181.55 648.71C181.63 648.8 181.67 648.92 181.67 649.03H187.53V640.93L180.22 631.83C180.05 631.61 180.09 631.3 180.3 631.13C180.52 630.96 180.83 630.99 181 631.2L187.53 639.34V626.7C187.53 626.43 187.75 626.2 188.03 626.2C188.31 626.2 188.53 626.43 188.53 626.7V649.03H195.13C195.13 648.95 195.15 648.86 195.2 648.78L196.67 646.25L195.94 641.31C195.89 641.04 196.08 640.79 196.36 640.74C196.62 640.71 196.88 640.89 196.92 641.16L197.48 644.87L200.55 639.61L204.14 633.43C204.28 633.2 204.58 633.11 204.82 633.26C205.06 633.39 205.14 633.7 205 633.94L202.11 638.91L208.84 636.32C209.1 636.22 209.38 636.35 209.48 636.61C209.58 636.86 209.45 637.15 209.19 637.25Z" fill="white"/>
</g>
<path fill-rule="evenodd" clip-rule="evenodd" d="M145.91 503.18C145.91 506.65 144.94 509.9 143.25 512.65C149.45 517.35 153.44 524.79 153.44 533.16C153.44 547.19 142.2 558.61 128.22 558.87V532.74L135.52 523.64C135.7 523.42 135.66 523.11 135.45 522.93C135.23 522.76 134.92 522.8 134.74 523.01L128.22 531.14V500.39C128.22 500.11 128 499.89 127.72 499.89C127.44 499.89 127.22 500.11 127.22 500.39V516.45L120.69 508.32C120.52 508.11 120.21 508.07 119.99 508.24C119.78 508.42 119.74 508.73 119.91 508.95L127.22 518.05V541.41L123.67 536.99C123.49 536.77 123.18 536.74 122.96 536.91C122.75 537.08 122.71 537.4 122.89 537.61L127.22 543.01V558.87C113.24 558.61 102 547.19 102 533.16C102 524.79 105.99 517.35 112.18 512.65C110.5 509.9 109.53 506.65 109.53 503.18C109.53 493.14 117.68 485 127.72 485C137.76 485 145.91 493.14 145.91 503.18ZM128.221 597.44V558.87H127.721H127.221V597.44C127.221 597.72 127.441 597.94 127.721 597.94C128.001 597.94 128.221 597.72 128.221 597.44Z" fill="white"/>
<path d="M330.19 610.25L322.31 613.29L317.22 622.03H344.06C344.06 602.69 328.38 587 309.03 587C289.68 587 274 602.69 274 622.03H301.5L296.46 616.26L288.16 614.77C287.89 614.72 287.71 614.46 287.76 614.19C287.81 613.92 288.08 613.74 288.34 613.78L295.42 615.06L292.7 611.94L289.54 608.32C289.36 608.11 289.38 607.79 289.59 607.61C289.8 607.43 290.12 607.45 290.3 607.66L292.74 610.46L293.19 607.3C293.22 607.02 293.48 606.84 293.75 606.87C294.02 606.91 294.21 607.16 294.18 607.43L293.61 611.46L297.11 615.47C297.11 615.47 297.12 615.48 297.12 615.49L302.55 621.71C302.63 621.8 302.67 621.92 302.67 622.03H308.53V613.93L301.22 604.83C301.05 604.61 301.09 604.3 301.3 604.13C301.52 603.96 301.83 603.99 302 604.2L308.53 612.34V599.7C308.53 599.43 308.75 599.2 309.03 599.2C309.31 599.2 309.53 599.43 309.53 599.7V622.03H316.13C316.13 621.95 316.15 621.86 316.2 621.78L317.67 619.25L316.94 614.31C316.89 614.04 317.08 613.79 317.36 613.74C317.62 613.71 317.88 613.89 317.92 614.16L318.48 617.87L321.55 612.61L325.14 606.43C325.28 606.2 325.58 606.11 325.82 606.26C326.06 606.39 326.14 606.7 326 606.94L323.11 611.91L329.84 609.32C330.1 609.22 330.38 609.35 330.48 609.61C330.58 609.86 330.45 610.15 330.19 610.25Z" fill="white"/>
</g>
</g>
<defs>
<clipPath id="clip0_234_2751">
<rect width="376" height="812" fill="white"/>
</clipPath>
<clipPath id="clip1_234_2751">
<rect width="376" height="327" fill="white" transform="translate(0 485)"/>
</clipPath>
<clipPath id="clip2_234_2751">
<rect width="70.06" height="35.03" fill="white" transform="translate(153 614)"/>
</clipPath>
</defs>
</svg>
